Sources/FrostedUI/Resources/Icons.xcassets/timeSkipLeft24.imageset/time-skip-left-24.svg

<svg width="24" height="24" viewBox="0 0 24 24" fill="none" xmlns="http://www.w3.org/2000/svg" data-fui-icon="true">
  <path
    d="M12.0859 2.25C7.53019 2.25 4.92571 4.89995 3.75 7.49219V4C3.75 3.58579 3.41421 3.25 3 3.25C2.58579 3.25 2.25 3.58579 2.25 4V9.05762C2.25 10.0385 3.03941 10.8456 4.02832 10.8457H8C8.41421 10.8457 8.75 10.5099 8.75 10.0957C8.74976 9.6817 8.41406 9.3457 8 9.3457H4.6748C5.30744 6.8821 7.52024 3.75 12.0859 3.75C17.1131 3.75011 20.25 7.52245 20.25 12C20.25 16.4775 17.1131 20.2499 12.0859 20.25C8.51676 20.25 5.68064 18.1211 4.52051 15.4512C4.35544 15.0713 3.91311 14.8974 3.5332 15.0625C3.15361 15.2277 2.97956 15.6691 3.14453 16.0488C4.53576 19.2507 7.90224 21.75 12.0859 21.75C18.03 21.7499 21.75 17.2146 21.75 12C21.75 6.78537 18.03 2.25011 12.0859 2.25ZM11.75 6.25C11.3358 6.25 11 6.58579 11 7V12.5C11 12.71 11.0881 12.9088 11.2402 13.0498L11.3086 13.1064L14.0586 15.1064C14.3935 15.35 14.8628 15.2762 15.1064 14.9414C15.35 14.6065 15.2762 14.1372 14.9414 13.8936L12.5 12.1182V7C12.5 6.58579 12.1642 6.25 11.75 6.25Z"
    fill="currentColor"
  />
</svg>

<svg xmlns="http://www.w3.org/2000/svg" width="24" height="24" fill="none" data-fui-icon="true" viewBox="0 0 24 24"><path fill="currentColor" d="M12.086 2.25c-4.556 0-7.16 2.65-8.336 5.242V4a.75.75 0 0 0-1.5 0v5.058c0 .98.79 1.788 1.778 1.788H8a.75.75 0 0 0 0-1.5H4.675c.632-2.464 2.845-5.596 7.41-5.596 5.028 0 8.165 3.772 8.165 8.25s-3.137 8.25-8.164 8.25c-3.57 0-6.405-2.129-7.565-4.799a.75.75 0 0 0-1.376.598c1.39 3.202 4.757 5.701 8.94 5.701 5.945 0 9.665-4.535 9.665-9.75s-3.72-9.75-9.664-9.75m-.336 4A.75.75 0 0 0 11 7v5.5c0 .21.088.409.24.55l.069.056 2.75 2a.75.75 0 0 0 .882-1.212L12.5 12.118V7a.75.75 0 0 0-.75-.75"/></svg>
